!!!OTL: Visitationis Beata Maria
**kern
*staff1
=--
*clefC1
*k[]
1g
0a
0cc
1a
=-
1a
0a
0g
2a
2b
=-
2cc
2a
1g
1a
=-
!!linebreak:original
0g
0a
0cc
0dd
=-
!LO:TX:Y=-43:t=P
1cc
2cc
2cc
2b
2a
1g
1a
1a
=-
!LO:TX:Y=-43:t=P
1cc
1cc
!!linebreak:original
=-
1dd
2cc
2b
1a
1g
=-
0g
0a
1.cc
2cc
=-
!LO:TX:Y=-38:t=P
1cc
1.dd
2cc
1b
1a
2dd
2cc
=-
0a
0cc
=-
!!linebreak:original
1g
1a
=-
!LO:TX:Y=-40:t=P
1cc
1cc
=-
!LO:TX:Y=-201:t=P
!LO:TX:Y=-40:t=P
1cc
1cc
=-
!LO:TX:Y=120:t=P
!LO:TX:Y=-38:t=P
1cc
1cc
=-
1dd
1dd
=-
!LO:TX:Y=-40:t=P
1cc
1a
=-
1.cc
2cc
=-
!LO:TX:Y=-199:t=P
!LO:TX:Y=-42:t=P
1cc
1.dd
2dd
1cc
=-
2dd
2cc
0a
0cc
=-
!!linebreak:original
1b
1a
1.b
2b
2cc
2b
1a
1g
=-
!LO:TX:Y=-40:t=P
1.cc
2dd
1.ee
4dd
4cc
0dd
=-
!!pagebreak:original
*clefC4
1d
1e
=-
2f
2e
2f
2d
=-
2c
2e
2d
2c
=-
2d
2B
0A
=-
2f
2d
2c
2A
=-
1F
1G
=-
2A
2G
2F
2E
=-
0D
!!linebreak:original
=-
2F
4G
4G
2F
2D
=-
1F
1G
=-
2A
2B
1c
=-
2c
2d
2c
2A
=-
1F
1G
=-
2A
2G
2F
2E
=-
0D
!!linebreak:original
=-
*clefC1
!LO:TX:Y=-42:t=P
1b
1a
=-
1.b
2b
=-
2cc
2b
1a
1g
=-
!LO:TX:Y=-44:t=P
1.b
2cc
=-
2cc
2b
2dd
1cc
=-
1a
1b
=-
1cc
2cc
2dd
=-
!!linebreak:original
1.ee
4dd
4cc
=-
0dd
=-
1b
2cc
2cc
=-
2b
2dd
1cc
=-
1a
1b
=-
1.cc
2dd
=-
1.ee
4dd
4cc
=-
0dd
=-=
*-
!!title: @{OTL}, @{GTL}, ed. @{ENC}
!!!pag:
!!!GTL: Hymnbook C
!!!EFL: 
!!!YEM: Creative Commons CC/BY/NC/SA 4.0
!!!ENC: Marcin Konik
!!!END: 2015-0m-dd
!!!EED: Marcin Konik
!!!EEV: 
!!!ONB: Encoded in vim by Marcin Konik
!!!CharacterEncoding: utf-8
!!!RDF**kern: l=long note in original notation
!!!RDF**kern: i=editorial accidental
!!muse2ps: z14jc180F
!!!COM: Anonim
!!!CDT: [?]
!!!TXO: Polish
!!!ODT: 
!!!GTL: Hymnbook C
!!!ARL: Opactwo św. Wojciecha, Staniątki 
!!!voices:	1
